X:1
T:Title
%%score { ( 1 3 ) | ( 2 4 ) }
L:1/8
M:4/4
K:Eb
V:1 treble nm="Grand Piano"
V:3 treble 
V:2 bass 
V:4 bass 
V:1
 z4 z2[Q:1/4=100] E>F | G>G A>G [DF]>[DF] [DG]>[DF] | E2 c2 B2 G>[GB] | %3
 [Ge]>[Bd] [Ac]>[GB] [Ac]>[GB] [FA]>[EG] | [DF]6[K:bass][K:treble] z2 | %5
 G>G A>G [DF]>[DF] [DG]>[DF] | E2 c2 B2 =A>G | F>G =A>B c2 d2 |[M:3/4] [B,DB]6 |[M:1/4] [B,AB]2 | %10
[M:4/4] [Ge]4 d4 | c>c e>c B2 G2 | A4 G4 | [EF]>[EF] [Ec]>[EF] [Dd]2 [AB]2 | [Ge]4 d4 | %15
 c>c e>c B2 G2 | F2 G2 A>B c>[Af] |[M:7/8] e2 [Fd]2 [Ge]3 |] %18
V:2
 z4 z2 [E,G,]>[E,A,E] | [E,B,E]>[E,B,E] [E,CE]>[E,B,E] [B,,A,]>[B,,A,] [B,,B,]>[B,,A,] | %2
 [E,G,]2 [E,A,E]2 [E,G,E]2 [E,B,E]>[E,B,] | %3
 [E,B,]>[E,B,] [E,B,]>[E,B,] [E,B,]>[E,B,] [D,B,]>[E,B,] | B,4 z2 [E,G,]>[E,A,E] | %5
 [E,B,E]>[E,B,E] [E,CE]>[E,B,E] [B,,A,]>[B,,A,] [B,,B,]>[B,,A,] | %6
 [E,G,]2 [E,A,E]2 [E,G,E]2 [=E,B,_D]>[E,B,D] | [F,B,D]>[F,B,D] [F,B,D]>[F,B,D] [F,=A,E]2 [F,A,F]2 | %8
[M:3/4] z2 F,>D, B,,2 |[M:1/4] B,,2 |[M:4/4] [E,B,]4[K:treble] [G,=B,F]4 | %11
 [A,CE]>[A,CE] [A,CE]>[A,E][K:bass] [G,B,E]2 [E,B,E]2 | [F,B,D]4 [E,B,E]4 | %13
 [C,=A,]>[C,A,] [F,A,]>[F,A,] [B,,B,]2 [D,B,]2 | [E,B,]4[K:treble] [G,=B,F]4 | %15
 [A,CE]>[A,CE] [A,CE]>[A,E][K:bass] [G,B,E]2 [E,B,E]2 | %16
 [A,C]2 [G,C=E]2 [F,CF]>[K:treble][G,CF] [A,CF]>[K:bass][F,B,] |[M:7/8] [B,G]2 [B,,B,]2 [E,B,]3 |] %18
V:3
 x8 | x8 | x8 | x8 | z2[K:bass] D,>F, B,2[K:treble] E>F | x8 | x8 | x8 |[M:3/4] x6 |[M:1/4] x2 | %10
[M:4/4] x8 | x8 | x8 | x8 | x8 | x8 | x8 |[M:7/8] x7 |] %18
V:4
 x8 | x8 | x8 | x8 | B,,6 z2 | x8 | x8 | x8 |[M:3/4] B,,4 z2 |[M:1/4] x2 |[M:4/4] x4[K:treble] x4 | %11
 x4[K:bass] x4 | x8 | x8 | x4[K:treble] x4 | x4[K:bass] x4 | x11/2[K:treble] x2[K:bass] x/ | %17
[M:7/8] x7 |] %18

